X: 10209
T: Dirty Old Town
R: hornpipe
M: 4/4
K: Gmajor
|:z2 D2 E2 G2|B4 B4|B2 A>G B2 G2|D4 D4|
D2 G2 B2 d2|e4 e4|e2 d>B A2 G2|B4 B4|
B2 d2 e2 d2|B4 B4|B2 A>G B2 G2|D4 D4|
D4 D>E G<B|A4 A4|A4 A>G E2|E4 E4:|

